!!!OTL: On the Lakes of Ponchartrain
!!!ONM: 137.
**kern
*clefG2
*k[b-]
*F:
*M4/4
*MM82
{4c
=1
4a
4f
4c
4f
=2
4a
4a
4f}
{(8a
8b-)
=3
4cc
4cc
4e
4f
=4
2g
4r}
{(8g
8a)
=5
4b-
4b-
4f
4a
=6
4cc
4cc
4cc}
{4cc
=7
4dd
4cc
4g
4g#
=8
2a
4r}
{4c
=9
4a
4f
4c
4f
=10
[4a
4a]
4f}
{(8a
8b-)
=11
4cc
4cc
4e
4f
=12
2g
4r}
{8g
8a
=13
4b-
4b-
4f
4a
=14
4cc
4cc
4cc}
{8b
8cc
=15
4dd
4cc
4g
4a
=16
2.f}
==
*-
!!!CNT: Folksongs of Maritime Canada
!!!MRD: 1928///-1932///
!!!OCL: Helen Creighton
!!!YOR: Songs and Ballads from Nova Scotia
!!!PPR: J.M. Dent & Sons, Limited
!!!PPP: Toronto, Canada
!!!PDT: 1932///
!!!reprint: Dover Publications, 1992: ISBN 0-486-21703-5
!!!ENC1: Craig Stuart Sapp (music and bibliographic data)                       
!!!ENC2: Marcus Pearce (phrase markings and key designations)                   
!!!ENC3: Darrell Conklin (phrase markings and key designations)   
!!!END: 2002/04/10/
!!!EEV: 2004/06/05
!!!MPN: Mrs. Thomas Osborne
!!!PPG: 299
!!!EFL: 139/152
!!!ARE: Canada; Nova Scotia
!!!verses: 5
!!!VTS: 499803252
